app/assets/images/icons/active/recreation.svg

<?xml version="1.0" encoding="UTF-8" standalone="no"?>
<svg width="32px" height="232px" viewBox="0 0 32 232" version="1.1" xmlns="http://www.w3.org/2000/svg" xmlns:xlink="http://www.w3.org/1999/xlink" xmlns:sketch="http://www.bohemiancoding.com/sketch/ns">
    <title>recreation</title>
    <description>Created with Sketch (http://www.bohemiancoding.com/sketch)</description>
    <defs></defs>
    <g id="Hotel-facilities" stroke="none" stroke-width="1" fill="none" fill-rule="evenodd" sketch:type="MSPage">
        <path d="M19.4454486,128.063 C20.8424486,128.063 21.9784486,126.928 21.9784486,125.532 C21.9784486,124.135 20.8424486,123 19.4454486,123 C18.0494486,123 16.9164486,124.135 16.9164486,125.532 C16.9164486,126.928 18.0494486,128.063 19.4454486,128.063 M23.5354486,133.024 L23.2734486,132.992 C23.2444486,132.99 23.2034486,132.988 23.1504486,132.988 L20.9164486,132.981 L20.1444486,130.604 C19.9284486,129.936 19.3614486,129.428 18.7134486,129.287 L16.6794486,128.461 C16.4554486,128.375 16.2224486,128.327 15.9844486,128.324 L11.4884486,128.237 C11.1444486,128.237 10.8064486,128.325 10.5044486,128.494 L10.4534486,128.457 L6.98844856,131.61 C6.14844856,132.373 6.09444856,133.688 6.86544856,134.534 C7.26144856,134.971 7.82044856,135.219 8.40644856,135.219 C8.91844856,135.219 9.40844856,135.031 9.78744856,134.688 L12.3004486,132.403 L12.9494486,132.405 L11.4704486,135.986 L9.92244856,139.018 L7.00044856,138.477 C6.90444856,138.46 6.82444856,138.449 6.74044856,138.447 L5.92944856,138.301 C4.79744856,138.094 3.73444856,138.867 3.53344856,139.981 C3.33044856,141.106 4.07244856,142.187 5.18944856,142.394 L10.7504486,143.402 C11.7734486,143.593 12.7404486,142.988 13.0684486,142.024 L13.9354486,140.61 L14.5924486,142.52 L14.5924486,146.94 C14.5924486,148.074 15.5254486,149 16.6744486,149 C17.8144486,149 18.7484486,148.076 18.7524486,146.94 L18.7524486,142.356 C18.7524486,142.259 18.7484486,142.177 18.7404486,142.135 C18.7304486,141.91 18.6934486,141.718 18.6334486,141.543 L17.4314486,138.042 L18.1054486,136.444 C18.4724486,136.767 18.9494486,136.949 19.4494486,136.951 L23.1854486,136.96 C24.4494486,136.96 25.2364486,136.197 25.2364486,134.977 C25.2364486,133.887 24.5904486,133.155 23.5354486,133.024 Z M28.5134486,146.565 C28.5134486,147.907 27.4264486,149 26.0804486,149 C24.7364486,149 23.6444486,147.907 23.6444486,146.565 C23.6444486,145.219 24.7364486,144.128 26.0804486,144.128 C27.4264486,144.128 28.5134486,145.219 28.5134486,146.565 Z M28.5134486,146.565" id="recreation--white" fill="#206FAC" sketch:type="MSShapeGroup"></path>
        <path d="M19.4454486,88.063 C20.8424486,88.063 21.9784486,86.928 21.9784486,85.532 C21.9784486,84.135 20.8424486,83 19.4454486,83 C18.0494486,83 16.9164486,84.135 16.9164486,85.532 C16.9164486,86.928 18.0494486,88.063 19.4454486,88.063 M23.5354486,93.024 L23.2734486,92.992 C23.2444486,92.99 23.2034486,92.988 23.1504486,92.988 L20.9164486,92.981 L20.1444486,90.604 C19.9284486,89.936 19.3614486,89.428 18.7134486,89.287 L16.6794486,88.461 C16.4554486,88.375 16.2224486,88.327 15.9844486,88.324 L11.4884486,88.237 C11.1444486,88.237 10.8064486,88.325 10.5044486,88.494 L10.4534486,88.457 L6.98844856,91.61 C6.14844856,92.373 6.09444856,93.688 6.86544856,94.534 C7.26144856,94.971 7.82044856,95.219 8.40644856,95.219 C8.91844856,95.219 9.40844856,95.031 9.78744856,94.688 L12.3004486,92.403 L12.9494486,92.405 L11.4704486,95.986 L9.92244856,99.018 L7.00044856,98.477 C6.90444856,98.46 6.82444856,98.449 6.74044856,98.447 L5.92944856,98.301 C4.79744856,98.094 3.73444856,98.867 3.53344856,99.981 C3.33044856,101.106 4.07244856,102.187 5.18944856,102.394 L10.7504486,103.402 C11.7734486,103.593 12.7404486,102.988 13.0684486,102.024 L13.9354486,100.61 L14.5924486,102.52 L14.5924486,106.94 C14.5924486,108.074 15.5254486,109 16.6744486,109 C17.8144486,109 18.7484486,108.076 18.7524486,106.94 L18.7524486,102.356 C18.7524486,102.259 18.7484486,102.177 18.7404486,102.135 C18.7304486,101.91 18.6934486,101.718 18.6334486,101.543 L17.4314486,98.042 L18.1054486,96.444 C18.4724486,96.767 18.9494486,96.949 19.4494486,96.951 L23.1854486,96.96 C24.4494486,96.96 25.2364486,96.197 25.2364486,94.977 C25.2364486,93.887 24.5904486,93.155 23.5354486,93.024 Z M28.5134486,106.565 C28.5134486,107.907 27.4264486,109 26.0804486,109 C24.7364486,109 23.6444486,107.907 23.6444486,106.565 C23.6444486,105.219 24.7364486,104.128 26.0804486,104.128 C27.4264486,104.128 28.5134486,105.219 28.5134486,106.565 Z M28.5134486,106.565" id="recreation--white" fill="#FFFFFF" sketch:type="MSShapeGroup"></path>
        <path d="M19.4454486,48.063 C20.8424486,48.063 21.9784486,46.928 21.9784486,45.532 C21.9784486,44.135 20.8424486,43 19.4454486,43 C18.0494486,43 16.9164486,44.135 16.9164486,45.532 C16.9164486,46.928 18.0494486,48.063 19.4454486,48.063 M23.5354486,53.024 L23.2734486,52.992 C23.2444486,52.99 23.2034486,52.988 23.1504486,52.988 L20.9164486,52.981 L20.1444486,50.604 C19.9284486,49.936 19.3614486,49.428 18.7134486,49.287 L16.6794486,48.461 C16.4554486,48.375 16.2224486,48.327 15.9844486,48.324 L11.4884486,48.237 C11.1444486,48.237 10.8064486,48.325 10.5044486,48.494 L10.4534486,48.457 L6.98844856,51.61 C6.14844856,52.373 6.09444856,53.688 6.86544856,54.534 C7.26144856,54.971 7.82044856,55.219 8.40644856,55.219 C8.91844856,55.219 9.40844856,55.031 9.78744856,54.688 L12.3004486,52.403 L12.9494486,52.405 L11.4704486,55.986 L9.92244856,59.018 L7.00044856,58.477 C6.90444856,58.46 6.82444856,58.449 6.74044856,58.447 L5.92944856,58.301 C4.79744856,58.094 3.73444856,58.867 3.53344856,59.981 C3.33044856,61.106 4.07244856,62.187 5.18944856,62.394 L10.7504486,63.402 C11.7734486,63.593 12.7404486,62.988 13.0684486,62.024 L13.9354486,60.61 L14.5924486,62.52 L14.5924486,66.94 C14.5924486,68.074 15.5254486,69 16.6744486,69 C17.8144486,69 18.7484486,68.076 18.7524486,66.94 L18.7524486,62.356 C18.7524486,62.259 18.7484486,62.177 18.7404486,62.135 C18.7304486,61.91 18.6934486,61.718 18.6334486,61.543 L17.4314486,58.042 L18.1054486,56.444 C18.4724486,56.767 18.9494486,56.949 19.4494486,56.951 L23.1854486,56.96 C24.4494486,56.96 25.2364486,56.197 25.2364486,54.977 C25.2364486,53.887 24.5904486,53.155 23.5354486,53.024 Z M28.5134486,66.565 C28.5134486,67.907 27.4264486,69 26.0804486,69 C24.7364486,69 23.6444486,67.907 23.6444486,66.565 C23.6444486,65.219 24.7364486,64.128 26.0804486,64.128 C27.4264486,64.128 28.5134486,65.219 28.5134486,66.565 Z M28.5134486,66.565" id="recreation--light-grey" fill="#67737B" sketch:type="MSShapeGroup"></path>
        <path d="M19.4454486,8.063 C20.8424486,8.063 21.9784486,6.928 21.9784486,5.532 C21.9784486,4.135 20.8424486,3 19.4454486,3 C18.0494486,3 16.9164486,4.135 16.9164486,5.532 C16.9164486,6.928 18.0494486,8.063 19.4454486,8.063 M23.5354486,13.024 L23.2734486,12.992 C23.2444486,12.99 23.2034486,12.988 23.1504486,12.988 L20.9164486,12.981 L20.1444486,10.604 C19.9284486,9.936 19.3614486,9.428 18.7134486,9.287 L16.6794486,8.461 C16.4554486,8.375 16.2224486,8.327 15.9844486,8.324 L11.4884486,8.237 C11.1444486,8.237 10.8064486,8.325 10.5044486,8.494 L10.4534486,8.457 L6.98844856,11.61 C6.14844856,12.373 6.09444856,13.688 6.86544856,14.534 C7.26144856,14.971 7.82044856,15.219 8.40644856,15.219 C8.91844856,15.219 9.40844856,15.031 9.78744856,14.688 L12.3004486,12.403 L12.9494486,12.405 L11.4704486,15.986 L9.92244856,19.018 L7.00044856,18.477 C6.90444856,18.46 6.82444856,18.449 6.74044856,18.447 L5.92944856,18.301 C4.79744856,18.094 3.73444856,18.867 3.53344856,19.981 C3.33044856,21.106 4.07244856,22.187 5.18944856,22.394 L10.7504486,23.402 C11.7734486,23.593 12.7404486,22.988 13.0684486,22.024 L13.9354486,20.61 L14.5924486,22.52 L14.5924486,26.94 C14.5924486,28.074 15.5254486,29 16.6744486,29 C17.8144486,29 18.7484486,28.076 18.7524486,26.94 L18.7524486,22.356 C18.7524486,22.259 18.7484486,22.177 18.7404486,22.135 C18.7304486,21.91 18.6934486,21.718 18.6334486,21.543 L17.4314486,18.042 L18.1054486,16.444 C18.4724486,16.767 18.9494486,16.949 19.4494486,16.951 L23.1854486,16.96 C24.4494486,16.96 25.2364486,16.197 25.2364486,14.977 C25.2364486,13.887 24.5904486,13.155 23.5354486,13.024 Z M28.5134486,26.565 C28.5134486,27.907 27.4264486,29 26.0804486,29 C24.7364486,29 23.6444486,27.907 23.6444486,26.565 C23.6444486,25.219 24.7364486,24.128 26.0804486,24.128 C27.4264486,24.128 28.5134486,25.219 28.5134486,26.565 Z M28.5134486,26.565" id="recreation--dark-grey" fill="#3A434E" sketch:type="MSShapeGroup"></path>
    </g>
</svg>

<svg width="32" height="232" viewBox="0 0 32 232" xmlns="http://www.w3.org/2000/svg" xmlns:sketch="http://www.bohemiancoding.com/sketch/ns"><title>recreation</title><g sketch:type="MSPage" fill="none"><path d="M19.445 128.063c1.397 0 2.533-1.135 2.533-2.531 0-1.397-1.136-2.532-2.533-2.532-1.396 0-2.529 1.135-2.529 2.532 0 1.396 1.133 2.531 2.529 2.531m4.09 4.961l-.262-.032-.123-.004-2.234-.007-.772-2.377c-.216-.668-.783-1.176-1.431-1.317l-2.034-.826c-.224-.086-.457-.134-.695-.137l-4.496-.087c-.344 0-.682.088-.984.257l-.051-.037-3.465 3.153c-.84.763-.894 2.078-.123 2.924.396.437.955.685 1.541.685.512 0 1.002-.188 1.381-.531l2.513-2.285.649.002-1.479 3.581-1.548 3.032-2.922-.541-.26-.03-.811-.146c-1.132-.207-2.195.566-2.396 1.68-.203 1.125.539 2.206 1.656 2.413l5.561 1.008c1.023.191 1.99-.414 2.318-1.378l.867-1.414.657 1.91v4.42c0 1.134.933 2.06 2.082 2.06 1.14 0 2.074-.924 2.078-2.06v-4.584l-.012-.221c-.01-.225-.047-.417-.107-.592l-1.202-3.501.674-1.598c.367.323.844.505 1.344.507l3.736.009c1.264 0 2.051-.763 2.051-1.983 0-1.09-.646-1.822-1.701-1.953zm4.978 13.541c0 1.342-1.087 2.435-2.433 2.435-1.344 0-2.436-1.093-2.436-2.435 0-1.346 1.092-2.437 2.436-2.437 1.346 0 2.433 1.091 2.433 2.437zm0 0" id="recreation--white" fill="#206FAC" sketch:type="MSShapeGroup"/><path d="M19.445 88.063c1.397 0 2.533-1.135 2.533-2.531 0-1.397-1.136-2.532-2.533-2.532-1.396 0-2.529 1.135-2.529 2.532 0 1.396 1.133 2.531 2.529 2.531m4.09 4.961l-.262-.032-.123-.004-2.234-.007-.772-2.377c-.216-.668-.783-1.176-1.431-1.317l-2.034-.826c-.224-.086-.457-.134-.695-.137l-4.496-.087c-.344 0-.682.088-.984.257l-.051-.037-3.465 3.153c-.84.763-.894 2.078-.123 2.924.396.437.955.685 1.541.685.512 0 1.002-.188 1.381-.531l2.513-2.285.649.002-1.479 3.581-1.548 3.032-2.922-.541-.26-.03-.811-.146c-1.132-.207-2.195.566-2.396 1.68-.203 1.125.539 2.206 1.656 2.413l5.561 1.008c1.023.191 1.99-.414 2.318-1.378l.867-1.414.657 1.91v4.42c0 1.134.933 2.06 2.082 2.06 1.14 0 2.074-.924 2.078-2.06v-4.584l-.012-.221c-.01-.225-.047-.417-.107-.592l-1.202-3.501.674-1.598c.367.323.844.505 1.344.507l3.736.009c1.264 0 2.051-.763 2.051-1.983 0-1.09-.646-1.822-1.701-1.953zm4.978 13.541c0 1.342-1.087 2.435-2.433 2.435-1.344 0-2.436-1.093-2.436-2.435 0-1.346 1.092-2.437 2.436-2.437 1.346 0 2.433 1.091 2.433 2.437zm0 0" fill="#fff" sketch:type="MSShapeGroup"/><path d="M19.445 48.063c1.397 0 2.533-1.135 2.533-2.531 0-1.397-1.136-2.532-2.533-2.532-1.396 0-2.529 1.135-2.529 2.532 0 1.396 1.133 2.531 2.529 2.531m4.09 4.961l-.262-.032-.123-.004-2.234-.007-.772-2.377c-.216-.668-.783-1.176-1.431-1.317l-2.034-.826c-.224-.086-.457-.134-.695-.137l-4.496-.087c-.344 0-.682.088-.984.257l-.051-.037-3.465 3.153c-.84.763-.894 2.078-.123 2.924.396.437.955.685 1.541.685.512 0 1.002-.188 1.381-.531l2.513-2.285.649.002-1.479 3.581-1.548 3.032-2.922-.541-.26-.03-.811-.146c-1.132-.207-2.195.566-2.396 1.68-.203 1.125.539 2.206 1.656 2.413l5.561 1.008c1.023.191 1.99-.414 2.318-1.378l.867-1.414.657 1.91v4.42c0 1.134.933 2.06 2.082 2.06 1.14 0 2.074-.924 2.078-2.06v-4.584l-.012-.221c-.01-.225-.047-.417-.107-.592l-1.202-3.501.674-1.598c.367.323.844.505 1.344.507l3.736.009c1.264 0 2.051-.763 2.051-1.983 0-1.09-.646-1.822-1.701-1.953zm4.978 13.541c0 1.342-1.087 2.435-2.433 2.435-1.344 0-2.436-1.093-2.436-2.435 0-1.346 1.092-2.437 2.436-2.437 1.346 0 2.433 1.091 2.433 2.437zm0 0" fill="#67737B" sketch:type="MSShapeGroup"/><path d="M19.445 8.063c1.397 0 2.533-1.135 2.533-2.531 0-1.397-1.136-2.532-2.533-2.532-1.396 0-2.529 1.135-2.529 2.532 0 1.396 1.133 2.531 2.529 2.531m4.09 4.961l-.262-.032-.123-.004-2.234-.007-.772-2.377c-.216-.668-.783-1.176-1.431-1.317l-2.034-.826c-.224-.086-.457-.134-.695-.137l-4.496-.087c-.344 0-.682.088-.984.257l-.051-.037-3.465 3.153c-.84.763-.894 2.078-.123 2.924.396.437.955.685 1.541.685.512 0 1.002-.188 1.381-.531l2.513-2.285.649.002-1.479 3.581-1.548 3.032-2.922-.541-.26-.03-.811-.146c-1.132-.207-2.195.566-2.396 1.68-.203 1.125.539 2.206 1.656 2.413l5.561 1.008c1.023.191 1.99-.414 2.318-1.378l.867-1.414.657 1.91v4.42c0 1.134.933 2.06 2.082 2.06 1.14 0 2.074-.924 2.078-2.06v-4.584l-.012-.221c-.01-.225-.047-.417-.107-.592l-1.202-3.501.674-1.598c.367.323.844.505 1.344.507l3.736.009c1.264 0 2.051-.763 2.051-1.983 0-1.09-.646-1.822-1.701-1.953zm4.978 13.541c0 1.342-1.087 2.435-2.433 2.435-1.344 0-2.436-1.093-2.436-2.435 0-1.346 1.092-2.437 2.436-2.437 1.346 0 2.433 1.091 2.433 2.437zm0 0" fill="#3A434E" sketch:type="MSShapeGroup"/></g></svg>
